X:740
T:Ubhaidh Abaidh 
C:Joe Buchanan's Scottish Tome - Page 413.3
I:413 3
R:Schottische
Z:Carl Allison
L:1/8
M:2/4
K:D
"Bm"BB B>B "Bm"B>B B>B | "Bm"F>F F>E "Bm"D>E F>A | "Bm"B>B B>B "Bm"B>B B>B | "A"(A>B) (c/B/A) "Bm"B2 B2 :|
"Bm"Bd "D"fb "Bm"f>f f>e | ""d>e f>a "Bm"Bd "D"fb | "A"(A>B) (c/B/A) | "Bm"B2 B2 :|

